packages/brickdoc-design-icons/assets/basic/share.svg

<svg width="24" height="24" viewBox="0 0 24 24" fill="none" xmlns="http://www.w3.org/2000/svg">
<g id="share">
<path id="Vector (Stroke)" fill-rule="evenodd" clip-rule="evenodd" d="M13 3C13 2.44772 13.4477 2 14 2H21C21.5523 2 22 2.44772 22 3V10C22 10.5523 21.5523 11 21 11C20.4477 11 20 10.5523 20 10V4H14C13.4477 4 13 3.55228 13 3Z" fill="#292333"/>
<path id="Vector (Stroke)_2" fill-rule="evenodd" clip-rule="evenodd" d="M4.5 6C4.22386 6 4 6.22386 4 6.5V19.5C4 19.7762 4.22385 20 4.5 20H17.5C17.7762 20 18 19.7762 18 19.5V14.7368C18 14.1846 18.4477 13.7368 19 13.7368C19.5523 13.7368 20 14.1846 20 14.7368V19.5C20 20.8807 18.8807 22 17.5 22H4.5C3.1193 22 2 20.8807 2 19.5V6.5C2 5.11929 3.11929 4 4.5 4H9C9.55228 4 10 4.44772 10 5C10 5.55228 9.55228 6 9 6H4.5Z" fill="#292333"/>
<path id="Vector (Stroke)_3" fill-rule="evenodd" clip-rule="evenodd" d="M21.2571 2.74289C21.6476 3.13341 21.6476 3.76658 21.2571 4.1571L13.6071 11.8071C13.2166 12.1976 12.5834 12.1976 12.1929 11.8071C11.8024 11.4166 11.8024 10.7834 12.1929 10.3929L19.8429 2.74289C20.2334 2.35237 20.8666 2.35237 21.2571 2.74289Z" fill="#292333"/>
</g>
</svg>

<svg  viewBox="0 0 24 24" width="24" height="24" fill="none" xmlns="http://www.w3.org/2000/svg"><g fill-rule="evenodd" clip-rule="evenodd" fill="#34313c"><path d="M13 3a1 1 0 0 1 1-1h7a1 1 0 0 1 1 1v7a1 1 0 1 1-2 0V4h-6a1 1 0 0 1-1-1ZM4.5 6a.5.5 0 0 0-.5.5v13a.5.5 0 0 0 .5.5h13a.5.5 0 0 0 .5-.5v-4.763a1 1 0 0 1 2 0V19.5a2.5 2.5 0 0 1-2.5 2.5h-13A2.5 2.5 0 0 1 2 19.5v-13A2.5 2.5 0 0 1 4.5 4H9a1 1 0 0 1 0 2H4.5Z"/><path d="M21.257 2.743a1 1 0 0 1 0 1.414l-7.65 7.65a1 1 0 0 1-1.414-1.414l7.65-7.65a1 1 0 0 1 1.414 0Z"/></g></svg>
